Vehículos.svg

<svg width="100" height="100" viewBox="0 0 100 100" fill="none" xmlns="http://www.w3.org/2000/svg">
<path d="M50 90.8037L32.7666 53.3516C37.058 58.0109 43.1894 60.9131 50 60.9131C56.8247 60.9131 62.9663 57.9776 67.2588 53.293L50 90.8037ZM70.7979 45.6035L69.249 48.9668C65.3038 55.5293 58.1583 59.9131 50 59.9131C41.8846 59.9131 34.7714 55.6084 30.8135 49.1055L29.2021 45.6035H70.7979ZM50 14.5C62.4222 14.5 72.5 24.6623 72.5 37.207C72.5 39.797 72.0695 42.2851 71.2783 44.6035H28.7119C27.9272 42.2887 27.5 39.8016 27.5 37.207C27.5 24.6623 37.5778 14.5 50 14.5Z" fill="black" stroke="black"/>
<mask id="mask0_177_972" style="mask-type:alpha" maskUnits="userSpaceOnUse" x="16" y="4" width="68" height="68">
<rect x="16.5" y="4.5" width="67" height="67" fill="#D9D9D9" stroke="white"/>
</mask>
<g mask="url(#mask0_177_972)">
<path d="M34.417 19.1667H65.583C66.2728 19.1667 66.8854 19.3619 67.4482 19.7614C68.0073 20.1581 68.3855 20.668 68.6016 21.3161L68.6035 21.3229L68.6064 21.3307L74.5 38.1715V60.6667C74.5 61.2175 74.3247 61.632 73.9785 61.9782C73.6323 62.3244 73.2178 62.4996 72.667 62.4997H69.833C69.2822 62.4996 68.8677 62.3244 68.5215 61.9782C68.1753 61.632 68 61.2175 68 60.6667V56.8337H32V60.6667C32 61.2175 31.8247 61.632 31.4785 61.9782C31.1323 62.3244 30.7178 62.4996 30.167 62.4997H27.333C26.7822 62.4996 26.3677 62.3244 26.0215 61.9782C25.6753 61.632 25.5 61.2175 25.5 60.6667V38.1715L31.3936 21.3307L31.3965 21.3229L31.3984 21.3161C31.6145 20.668 31.9927 20.1581 32.5518 19.7614C33.0442 19.412 33.5743 19.2183 34.1611 19.1755L34.417 19.1667ZM37.25 39.8337C35.8073 39.8337 34.5483 40.3498 33.5322 41.3659C32.5163 42.3819 32 43.641 32 45.0837C32.0001 46.5261 32.5165 47.7845 33.5322 48.8005C34.5483 49.8165 35.8073 50.3337 37.25 50.3337C38.6927 50.3337 39.9517 49.8165 40.9678 48.8005C41.9835 47.7845 42.4999 46.5261 42.5 45.0837C42.5 43.641 41.9837 42.3819 40.9678 41.3659C39.9517 40.3498 38.6927 39.8337 37.25 39.8337ZM62.75 39.8337C61.3073 39.8337 60.0483 40.3498 59.0322 41.3659C58.0163 42.3819 57.5 43.641 57.5 45.0837C57.5001 46.5261 58.0165 47.7845 59.0322 48.8005C60.0483 49.8165 61.3073 50.3337 62.75 50.3337C64.1927 50.3337 65.4517 49.8165 66.4678 48.8005C67.4835 47.7845 67.9999 46.5261 68 45.0837C68 43.641 67.4837 42.3819 66.4678 41.3659C65.4517 40.3498 64.1927 39.8337 62.75 39.8337ZM34.4648 23.5026L31.4893 32.0026L31.0234 33.3337H69.2637L68.75 31.9792L65.5264 23.4792L65.2822 22.8337H34.6992L34.4648 23.5026ZM63.9014 24.8337L66.3662 31.3337H33.8428L36.1182 24.8337H63.9014Z" fill="black" stroke="white" stroke-width="2"/>
</g>
</svg>

<?xml version="1.0" encoding="UTF-8"?>
<svg id="Capa_1" xmlns="http://www.w3.org/2000/svg" version="1.1" xmlns:xlink="http://www.w3.org/1999/xlink" viewBox="0 0 100 100">
  <!-- Generator: Adobe Illustrator 29.5.1, SVG Export Plug-In . SVG Version: 2.1.0 Build 141)  -->
  <defs>
    <style>
      .st0 {
        mask: url(#mask);
      }

      .st1 {
        fill: #f4000d;
        stroke-miterlimit: 10;
        stroke-width: 2px;
      }

      .st1, .st2 {
        stroke: #fff;
      }

      .st3 {
        fill: #00b5c9;
        stroke-width: .25px;
      }

      .st3, .st4 {
        stroke: #000;
      }

      .st4 {
        fill: #fff;
      }

      .st2 {
        fill: #d9d9d9;
      }
    </style>
    <mask id="mask" x="16" y="4" width="68" height="68" maskUnits="userSpaceOnUse">
      <g id="mask0_177_972">
        <rect class="st2" x="16.5" y="4.5" width="67" height="67"/>
      </g>
    </mask>
  </defs>
  <path class="st3" d="M50,90.8l-17.23-37.45c4.29,4.66,10.42,7.56,17.23,7.56s12.97-2.94,17.26-7.62l-17.26,37.51ZM70.8,45.6l-1.55,3.36c-3.95,6.56-11.09,10.95-19.25,10.95s-15.23-4.3-19.19-10.81l-1.61-3.5h41.6ZM50,14.5c12.42,0,22.5,10.16,22.5,22.71,0,2.59-.43,5.08-1.22,7.4H28.71c-.78-2.31-1.21-4.8-1.21-7.4,0-12.54,10.08-22.71,22.5-22.71Z"/>
  <g class="st0">
    <path class="st1" d="M34.42,19.17h31.17c.69,0,1.3.2,1.87.59.56.4.94.91,1.15,1.55h0s0,.01,0,.01l5.89,16.84v22.5c0,.55-.18.97-.52,1.31-.35.35-.76.52-1.31.52h-2.83c-.55,0-.97-.18-1.31-.52-.35-.35-.52-.76-.52-1.31v-3.83h-36v3.83c0,.55-.18.97-.52,1.31-.35.35-.76.52-1.31.52h-2.83c-.55,0-.97-.18-1.31-.52-.35-.35-.52-.76-.52-1.31v-22.5l5.89-16.84h0s0-.01,0-.01c.22-.65.59-1.16,1.15-1.55.49-.35,1.02-.54,1.61-.59h.26ZM37.25,39.83c-1.44,0-2.7.52-3.72,1.53-1.02,1.02-1.53,2.28-1.53,3.72,0,1.44.52,2.7,1.53,3.72,1.02,1.02,2.28,1.53,3.72,1.53s2.7-.52,3.72-1.53c1.02-1.02,1.53-2.27,1.53-3.72,0-1.44-.52-2.7-1.53-3.72-1.02-1.02-2.28-1.53-3.72-1.53ZM62.75,39.83c-1.44,0-2.7.52-3.72,1.53-1.02,1.02-1.53,2.28-1.53,3.72,0,1.44.52,2.7,1.53,3.72,1.02,1.02,2.28,1.53,3.72,1.53s2.7-.52,3.72-1.53c1.02-1.02,1.53-2.27,1.53-3.72,0-1.44-.52-2.7-1.53-3.72-1.02-1.02-2.28-1.53-3.72-1.53ZM34.46,23.5l-2.98,8.5-.47,1.33h38.24l-.51-1.35-3.22-8.5-.24-.65h-30.58l-.23.67ZM63.9,24.83l2.46,6.5h-32.52l2.28-6.5h27.78Z"/>
  </g>
  <ellipse class="st4" cx="37.23" cy="45.08" rx="4.46" ry="4.58"/>
  <ellipse class="st4" cx="62.75" cy="45.08" rx="4.46" ry="4.58"/>
</svg>
